!!!COM: Corelli, Arcangelo
!!!OPR: Sonata da camera
!!!OPS: 4
!!!ONM: 5
!!!OMV: 2
!!!OTL: Allemanda
!!!OMD: Allegro
**kern	**harm	**fb	**kern	**kern
*part3	*above	*part3	*part2	*part1
*staff3	*	*	*staff2	*staff1
*I"Violone & Cembalo	*	*	*I"Violino II	*I"Violino I
*clefF4	*	*	*clefG2	*clefG2
*k[]	*	*	*k[]	*k[]
*a:	*	*	*a:	*a:
*M4/4	*	*	*M4/4	*M4/4
*met(c)	*	*	*met(c)	*met(c)
*MM104	*	*	*MM104	*MM104
=1	=1	=1	=1	=1
8AL	a.i{	.	1r	4.a
8c	.	.	.	.
8B	.	.	.	.
8AJ	.	.	.	8a
8G#XL	V6	6	.	4.b
8F#X	.	.	.	.
8G#	.	.	.	.
8EJ	.	.	.	8b
=2	=2	=2	=2	=2
8AL	i	.	4.a	8ccL
8AA	.	.	.	8eJ
8C	i6	6	.	2a
8AAJ	.	.	8a	.
8DL	ii%65	6 5	4.b	.
8BB	.	.	.	.
8E	V	#	.	4g#X
8EEJ	.	.	8b	.
=3	=3	=3	=3	=3
8AAL	i	.	4.cc	8aL
8C	.	.	.	8bJ
*C:	*	*	*C:	*C:
8E	I6/III	6	.	2cc
8CJ	.	.	8cc	.
8FL	ii65/III	6 5	4.dd	.
8D	.	.	.	.
8G	V/III	.	.	4b
8GGJ	.	.	8dd	.
=4	=4	=4	=4	=4
8CL	I/III	.	8eeL	4.cc
8D	.	.	8gJ	.
8E	I6/III	6	2cc	.
8CJ	.	.	.	8cc
8FL	ii65/III	6 5	.	4.dd
8D	.	.	.	.
8G	V/III	.	4b	.
8GGJ	.	.	.	8dd
=5	=5	=5	=5	=5
8CL	I/III	.	8ccL	4.ee
8G	.	.	8ddJ	.
8c	.	.	4.ee	.
8BJ	.	.	.	8gg
8AL	IVM65/III	6 5	.	4.ff
8A	.	.	8a	.
8B	V65/III	5	[4dd	.
8GJ	.	.	.	(16ggLL
.	.	.	.	16ffJJ)
=6	=6	=6	=6	=6
8cL	III(9)	.	8ddL]	4.ee
8d	.	.	8gJ	.
8e	III6	.	4.cc	.
8EJ	.	.	.	8ee
*a:	*	*	*a:	*a:
8F#XL	IV65	6 5	.	4.dd
8F#	.	.	(16bLL	.
.	.	.	16aJJ)	.
8G#X	V65	5	[4b	.
8EJ	.	.	.	(16eeLL
.	.	.	.	16ddJJ)
=7	=7	=7	=7	=7
8AL	i(9)	9	8bL]	4.cc
8B	.	.	8eJ	.
8c	i6	6	2a	.
8CJ	.	.	.	8ee
8DL	iv	.	.	4ff
8D	.	.	.	.
8E	V	#	4g#X	[4ee
8EJ	.	.	.	.
=8	=8	=8	=8	=8
8FL	iv6(9)	7	4.a	8eeL]
8E	.	.	.	8aJ
8F	iv6	6	.	2dd
8DJ	.	.	8b	.
8EL	V7	7 #	8g#XL	.
8E	.	.	8eJ	.
8F	VI	.	[4a	4cc
8CJ	.	.	.	.
=9	=9	=9	=9	=9
8DL	ii%65	6 5	4a]	2b
8BB	.	.	.	.
8E	V	#	4g#X	.
8EEJ	.	.	.	.
8AAL	i|IAC}{	.	2a	4cc
8A	.	.	.	.
8c	.	6	.	[4a
8AJ	.	.	.	.
=10	=10	=10	=10	=10
8eL	V(4)	5 4	2b	4a]
8E	.	.	.	.
8G#X	V	6	.	4g#X
8EJ	.	.	.	.
8AL	i	.	4cc	2a
8AA	.	.	.	.
8C	.	6	[4a	.
8AAJ	.	.	.	.
=11	=11	=11	=11	=11
8EL	V(4)	5 4	4a]	2b
8EE	.	.	.	.
8GG#X	V	6	4g#X	.
8EEJ	.	.	.	.
4AA	i	.	4a	4cc
4GGn	v6	6	[4ee	4b
=12	=12	=12	=12	=12
2FF	iv6(9)	7	4ee]	4a
.	iv6	6	4dd	4aa
2EE	V|HC}	#	2ee	2gg#X
=13:|!|:	=13:|!|:	=13:|!|:	=13:|!|:	=13:|!|:
*C:	*	*	*C:	*C:
8cL	III.I{	.	1r	4.cc
8e	.	.	.	.
8d	.	.	.	.
8cJ	.	.	.	8cc
8BL	V6	6	.	4.dd
8A	.	.	.	.
8B	.	.	.	.
8GJ	.	.	.	8dd
=14	=14	=14	=14	=14
8cL	I	.	4.cc	8eeL
8C	.	.	.	8gJ
8E	I6	6	.	2cc
8CJ	.	.	8cc	.
8FL	ii65	6 5	4.dd	.
8D	.	.	.	.
8G	V	.	.	4b
8GGJ	.	.	8dd	.
=15	=15	=15	=15	=15
8CL	I	.	4.ee	8ccL
8c	.	.	.	8ddJ
*e:	*	*	*e:	*e:
8G	i6/iii	6	.	2ee
8EJ	.	.	8ee	.
8AL	ii%65/iii	#6\ 5	4.ff#X	.
8F#X	.	.	.	.
8B	V/iii	#	.	4dd#X
8BBJ	.	.	8ff#	.
=16	=16	=16	=16	=16
8EL	i/iii	.	8ggL	4.ee
8F#X	.	.	8bJ	.
8G	i6/iii	6	2ee	.
8EJ	.	.	.	8ee
8AL	ii%65/iii	#6\ 5	.	4.ff#X
8F#	.	.	.	.
8B	V/iii	#	4dd#X	.
8BBJ	.	.	.	8ff#
=17	=17	=17	=17	=17
8EL	iii	.	8eeL	4.gg
8e	.	.	8ff#XJ	.
*G:	*	*	*G:	*G:
8B	I6/V	6	2gg	.
8GJ	.	.	.	8gg
8cL	ii65/V	6 5	.	4.aa
8A	.	.	.	.
8d	V/V	#	4ff#	.
8DJ	.	.	.	8aa
=18	=18	=18	=18	=18
8GL	I/V	.	4.gg	8bbL
8A	.	.	.	8ddJ
8B	I6/V	6	.	2gg
8GJ	.	.	8gg	.
8cL	ii65/V	6 5	4.aa	.
8A	.	.	.	.
8d	V/V	#	.	4ff#X
8DJ	.	.	8aa	.
=19	=19	=19	=19	=19
*d:	*	*	*d:	*d:
8GL	iv/ii	.	4bb-X	4gg
8A	.	.	.	.
8B-X	VI/ii	5	2dd	4ffni
8FJ	.	.	.	.
8GL	ii65/ii	6 5	.	4.ee
8E	.	.	.	.
8A	V/ii	#	4cc#X	.
8AAJ	.	.	.	8aa
=20	=20	=20	=20	=20
8DL	ii	.	8ddL	4ff
*C:	*	*	*C:	*C:
8G	V7	7	8bniJ	.
8A	vi	5	4.ccni	4ee
8EJ	I6	6	.	.
8FL	ii65	6 5	.	4.dd
8D	.	.	(16bLL	.
.	.	.	16aJJ)	.
8G	V	.	[4b	.
8GGJ	.	.	.	(16eeLL
.	.	.	.	16ddJJ)
=21	=21	=21	=21	=21
*a:	*	*	*a:	*a:
8AAL	i.i(9)|EC	9	8bL]	4.cc
8BB	.	.	8eJ	.
8C	i6	6	2a	.
8DJ	.	.	.	(16ddLL
.	.	.	.	16ccJJ)
8EL	v(4)	5 4	.	8bL
8F	.	.	.	8eJ
*e:	*	*	*e:	*e:
8G	v6	6	4g	[4ee
8EJ	.	.	.	.
=22	=22	=22	=22	=22
8AL	VI65	6 5	4.f	8eeL]
8c	.	.	.	8aJ
8B	iio	5	.	4.dd
8AJ	.	.	(16gLL	.
.	.	.	16fJJ)	.
*a:	*	*	*a:	*a:
8G#XL	V65	6 5	4.e	.
8E	.	.	.	(16ccLL
.	.	.	.	16bJJ)
8A	i	.	.	[4cc
8AAJ	.	.	8ee	.
=23	=23	=23	=23	=23
*C:	*	*	*C:	*C:
8DL	iv7	7	4.ff	8ccL]
8F	.	.	.	16bL
.	.	.	.	16aJJ
8Gni	VII7	7	.	4.b
8GGJ	.	.	(16eeLL	.
.	.	.	16ddJJ)	.
8CL	IIIM7	7	4.ee	.
8E	.	.	.	8e
8F	VI7	7	.	[4a
8FFJ	.	.	8a	.
=24	=24	=24	=24	=24
*a:	*	*	*a:	*a:
8BBL	ii%7	7	8ddL	4a]
8D	.	.	8ccJ	.
8E	V	#	2b	4g#X
8EEJ	.	.	.	.
8AAL	i(9)|EC	9	.	8ccL
8BB	.	.	.	8ddJ
8C	i6	6	4a	[4ee
8AAJ	.	.	.	.
=25	=25	=25	=25	=25
8DL	iv(9)	9	4.ff	8eeL]
8E	.	.	.	8aJ
8F	iv6	6	.	2dd
8DJ	.	.	8a	.
8EL	V	7 #	8g#XL	.
8E	.	.	8eJ	.
8F	VI	5	[4a	4cc
8CJ	.	.	.	.
=26	=26	=26	=26	=26
8DL	ii%65	6 5	4a]	2b
8BB	.	.	.	.
8E	V	#	4g#X	.
8EEJ	.	.	.	.
8AAL	i|PAC}{	.	4a	4.a
8BB	.	.	.	.
8C	i6	6	[4ee	.
8AAJ	.	.	.	8ee
=27	=27	=27	=27	=27
8DL	iv(9)	9	8eeL]	4.ff
8E	.	.	8aJ	.
8F	iv6	6	2dd	.
8DJ	.	.	.	8a
8EL	V7	7 #	.	8g#XL
8E	.	.	.	8eJ
8F	VI	5	4cc	[4a
8CJ	.	.	.	.
=28	=28	=28	=28	=28
8DL	ii%65	6 5	2b	4a]
8BB	.	.	.	.
8E	V	#	.	4g#X
8EEJ	.	.	.	.
2AA	i|PAC}	.	2a	2a
=:|!	=:|!	=:|!	=:|!	=:|!
*-	*-	*-	*-	*-
!!!system-decoration: [{s1,s2},s3]
!!!YEM: CC BY-NC-SA 4.0; CCARH; DCML
!!!RDF**kern: i = editorial accidental